X:1
T:Title
%%score { ( 1 3 ) | ( 2 4 ) }
L:1/8
Q:1/4=100
M:6/8
K:Ab
V:1 treble nm="Grand Piano"
V:3 treble 
V:2 bass 
V:4 bass 
V:1
 [Ec]>[Fd][Ec] [Ec][EB][EA] | [FB][FA][DF] [CE]3 | GGG G2 F | C3- [CA]3 | c>dc cBA | [FB][FA]F F3 | %6
w: W.~H.~Doane * * * * *||||||
 E3 GFG | [CA]6 | B3 BAB | [Ec]3 .e3 | e3 ec[CA] | [EB]6 | c>dc cBA | [FB][FA]F F3 | E3 GFG | %15
w: |||||||||
 [CA]6 |] %16
w: |
V:2
 [A,,A,]>[A,,A,][A,,A,] [A,,A,][B,,G,][C,A,] | [D,A,][D,A,][D,A,] [A,,A,]3 | %2
 [E,B,D][E,B,D][E,B,D] [E,B,D]2 [E,G,D] | z3 .E,3 | [A,E]>[A,F][K:bass][A,E] [A,E][E,G,D][F,A,C] | %5
 [D,D][D,D][D,A,D] [D,A,D]3 | [E,A,C]3 [E,B,D][E,B,D][E,D] | [A,,E,]6 | %8
 [E,G,D]3 [E,G,D][E,A,C][E,G,E] | A,A,A,[K:treble] .[A,CA]3 | [A,CA]3 [A,CA][K:bass][A,E][A,,A,] | %11
 [E,G,]E,E, .E,3 | [A,E]>[A,F][K:bass][A,E] [A,E][E,G,D][F,A,C] | [D,D][D,D][D,A,D] [D,A,D]3 | %14
 [E,A,C]3 [E,B,D][E,B,D][E,D] | [A,,E,]6 |] %16
V:3
 x6 | x6 | x6 | [A,E]3 z3 | x6 | x6 | x6 | x6 | x6 | x6 | x6 | z G,G, .G,3 | x6 | x6 | x6 | x6 |] %16
V:4
 x6 | x6 | x6 | A,,6 | x2[K:bass] x4 | x6 | x6 | x6 | x6 | x3[K:treble] x3 | x4[K:bass] x2 | x6 | %12
 x2[K:bass] x4 | x6 | x6 | x6 |] %16

